X:1
T:Les Retrouvailles
C: abc file by Bernard Loffet
L:1/8
Q:440
M:4/4
K:C
z2C2C2D2|[E2C,2]C,2C,2C,2|C,2[E2C,2][D2C,2][E2C,2]|[C2C,2]C,2C,2C,2|C,2[G2C,2][G2C,2][G2C,2]|[A2F,2]F,2F,2F,2|F,2[A2F,2][A2F,2][F2F,2]|[G2C,2]C,2C,2C,2| \
C,2[G2C,2][G2C,2][G2C,2]|[A2F,2]F,2F,2F,2|F,2[A2F,2][A2F,2][F2F,2]|[G2C,2]C,2C,2C,2|C,2[C2C,2][C2C,2][D2C,2]|[E2A,2]A,2[E2A,2][E2A,2]|[F2G,2][D2G,2][C2G,2][B,2G,2]| \
[C2C,2]C,2C,2C,2|C,2[G2C,2][G2C,2][G2C,2]|[A2F,2]F,2F,2F,2|F,2[A2F,2][G2F,2][A2F,2]|[B2G,2]G,2G,2G,2|G,2[B2G,2][A2G,2][B2G,2]|[c2F,2]F,2[c2F,2]F,2|[B2G,2]G,2[A2G,2]G,2| \
[G2C,2]C,2C,2C,2|C,2[G2C,2][G2C,2][G2C,2]|[F2F,2]F,2F,2F,2|G,2[A2G,2][G2G,2][F2G,2]|[E2C,2]C,2C,2C,2|A,2[C2A,2][C2A,2][D2A,2]|[E2C,2]C,2[E2C,2][E2C,2]| \
[F2G,2][D2G,2][C2G,2][B,2G,2]|[C2C,2]C,2C,2C,2|C,8| \
Z:Created with TablEdit http://www.tabledit.com/ by Bernard Loffet
